X: 11763
T: Eliza Jane
R: polka
M: 2/4
K: Amajor
e/f/|:af ec|e/f/e/c/ Ac/e/|af ec|f2 fe/f/|
af ec|e/f/e/c/ AA/B/|c/B/A/c/ B/A/F/E/|1 A2 Ae/f/:|2 A2 AB]||
|:B/c/c/c/ B/c/c/c/|BA2B|B/c/c/c/ BA|F3A|
B2 BA/B/|cB AA/B/|c/B/A/c/ B/A/F/E/|A2AB:|

